X: 10302
M: C
L: 1/8
K: A
|:\
E<AA>B (cA).A.e | e>dd>c (BG)G2 |\
E<AA<B (cA).A.e | e>cde cAA2 ::\
e>cAe c<Ae>c | d>edc (BG)G(c/d/) |
e>cAe c<Ae>c | d>fed (cA)A2 ::\
(3(aba) (3(gag) (3(ege) c>e |
(3(ege) (dec) B>GGc |\
E>Ac>d e>cda | g>ed>e c<AA2 ::\


